!!!COM: Bach, Johann Sebastian
!!!OPR: Joh. Seb. Bachs vierstimmige Choralgesänge
!!!XEN: Four-part Chorales
!!!OTL: 111. Jesus Christus, unser Heiland
!!!SCT: BWV 364
!!!SCA: Thematisch-systematisches Verzeichnis der musikalischen Werke Johann Sebastian Bach: Bach-Werke-Verzeichnis (Schmieder)
!!!YOR: Bach Gesellschaft Edition xxxix
!!!ENC: Steven Rasmussen
!!!CDT: 1685/3//-1750/7/28/
!!!OCY: Deutschland
!!!YEC: Copyright (c) 1994, 2000 Center for Computer Assisted Research in the Humanities
!!!YEM: Rights to all derivative editions reserved
!!!YEN: United States of America
**kern	**silbe	**kern	**kern	**kern
*I:[SOPRANO]	*I:[SOPRANO]	*I:[ALTO]	*I:[TENORE]	*I:[BASSO]
*clefG2	*	*clefG2	*clefGv2	*clefF4
*k[b-]	*	*k[b-]	*k[b-]	*k[b-]
*d:	*	*d:	*d:	*d:
*M4/4	*	*M4/4	*M4/4	*M4/4
=1-	=1-	=1-	=1-	=1-
4g	Je-	4d	4B-	8GGL
.	.	.	.	8AAJ
4f	-sus	4d	4B-	8BB-L
.	.	.	.	8CJ
4f	Chri-	4d	8AL	4D
.	.	.	8B-J	.
4g	-stus,	8dL	4G	4E
.	.	8cJ	.	.
=2	=2	=2	=2	=2
4a	un-	(8c	8FL	4F
.	.	4f)	8AJ	.
4g	-ser	.	4B-	4G
.	.	8e	.	.
(4f	Hei-	4.d	4Bn	4G#
4e)	.	.	8EL	8AL
.	.	8c#	16AL	8AAJ
.	.	.	16GJJ	.
=3	=3	=3	=3	=3
2d;	-land,	2A;	2F;	2D;
4r	.	4r	4r	4r
4f	der	4d	4A	8DL
.	.	.	.	8CJ
=4	=4	=4	=4	=4
4g	den	4d	8B-L	4BB-
.	.	.	8GJ	.
4a	Tod	8e-L	4c	4FF#
.	.	8dJ	.	.
4g	Ã¼-	4d	8cL	4GG
.	.	.	8B-J	.
4f#	-ber-	4d	4A	4D
=5	=5	=5	=5	=5
2g;	-wand,	2d;	2B-;	2GG;
4r	.	4r	4r	4r
4cc	ist	8gL	4c	8E-L
.	.	8fJ	.	8DJ
=6	=6	=6	=6	=6
8gL	auf-	4e-	4c	4C
8aJ	.	.	.	.
4b-	-er-	8dL	4d	4GG
.	.	8gJ	.	.
4a	-stan-	8gL	4.d	4D
.	.	8f#	.	.
4g	.	8g	.	4E-
.	.	8GJ	8c	.
=7	=7	=7	=7	=7
2a;	-den;	2d;	2F#;	2D;
4r	.	4r	4r	4r
4g	die	8dL	4B-	4GG
.	.	8c#J	.	.
=8	=8	=8	=8	=8
4f	SÃ¼nd'	8dL	4A	4D
.	.	8fJ	.	.
4g	hat	8fL	4c	4C
.	.	8eJ	.	.
4a	er	4f	4c	8FL
.	.	.	.	8EJ
4g	ge-	4e	4B-	8DL
.	.	.	.	8C#J
=9	=9	=9	=9	=9
4f	-fan-	8e	[4A	4D
.	.	4d	.	.
4e	.	.	8.AL]	4AA
.	.	8c#	.	.
.	.	.	16GJk	.
4d;	-gen,	4A;	4F;	4DD;
4f	Ky-	4d	4A	8DL
.	.	.	.	8CJ
=10	=10	=10	=10	=10
4g	-rie	4d	4B-	8BB-L
.	.	.	.	8AAJ
4a	e-	4e-	4c	8GGL
.	.	.	.	8FF#J
4g	-le-	4d	8cL	4GG
.	.	.	8B-J	.
4f#	-i-	4d	8AL	4DD
.	.	.	8cJ	.
=11	=11	=11	=11	=11
1g;	-son.	1d;	1Bn;	1GG;
==|!	==|!	==|!	==|!	==|!
*-	*-	*-	*-	*-
!!!RWG: Key is interpreted using the Humdrum key tool.
!!!END: 1994/07/13
!!!EMD: Converted from MuseData to Humdrum Dec 19, 2000, by Andreas Kornstaedt using muse2kern.
!!!EED: Craig Stuart Sapp
!!!EEV: 2024/03/31
!!!ONB: Some non-unicode characters
